src/assets/images/icons/spending.svg

<?xml version="1.0" encoding="utf-8"?>
<svg width="32" height="33" viewBox="0 0 32 33" fill="none" xmlns="http://www.w3.org/2000/svg">
<path d="M19 8.56836C21.2091 8.56836 23 6.7775 23 4.56836C23 2.35922 21.2091 0.568359 19 0.568359C16.7909 0.568359 15 2.35922 15 4.56836C15 6.7775 16.7909 8.56836 19 8.56836Z" fill="#1F3D56"/>
<path d="M23 10.569H13.077C10.851 7.16399 7.328 7.12099 5.712 7.61199L4.726 7.90899L6.294 12.613C5.027 13.654 4.069 15.022 3.522 16.569H0V25.569H5.297C6.549 26.969 8.183 27.931 10 28.342V32.569H16V28.569H20V32.569H26V28.048C29.569 26.789 32 23.407 32 19.569C32 14.606 27.962 10.569 23 10.569ZM9.5 19.569C8.672 19.569 8 18.897 8 18.069C8 17.241 8.672 16.569 9.5 16.569C10.328 16.569 11 17.241 11 18.069C11 18.897 10.328 19.569 9.5 19.569ZM23 16.569H15V14.569H23V16.569Z" fill="#1F3D56"/>
</svg>

<svg width="32" height="33" fill="none" xmlns="http://www.w3.org/2000/svg"><path d="M19 8.568a4 4 0 100-8 4 4 0 000 8zM23 10.569h-9.923c-2.226-3.405-5.749-3.448-7.365-2.957l-.986.297 1.568 4.704a9.003 9.003 0 00-2.772 3.956H0v9h5.297A8.938 8.938 0 0010 28.342v4.227h6v-4h4v4h6v-4.521a8.994 8.994 0 006-8.479c0-4.963-4.038-9-9-9zm-13.5 9a1.5 1.5 0 11.001-3.001 1.5 1.5 0 01-.001 3.001zm13.5-3h-8v-2h8v2z" fill="#1F3D56"/></svg>
